lib/brands/logos/pay-pal.svg

<svg xmlns="http://www.w3.org/2000/svg" fill="none" aria-hidden="true" viewBox="0 0 182 64"><g id="PayPal"><g id="Group"><g id="Union"><path fill="#283B82" fill-rule="evenodd" d="M25.2981 8.81458H11.8498C10.9294 8.81458 10.1468 9.48334 10.0032 10.3921L4.56411 44.8771C4.45593 45.5572 4.98305 46.1709 5.67315 46.1709H12.0936C13.0138 46.1709 13.7964 45.5024 13.94 44.592L15.4069 35.2909C15.5486 34.3803 16.3331 33.7116 17.2514 33.7116H21.5088C30.3675 33.7116 35.4801 29.4248 36.8155 20.9299C37.4171 17.2133 36.841 14.2933 35.1006 12.2482C33.1893 10.0023 29.7992 8.81458 25.2981 8.81458ZM26.8496 21.4098C26.1142 26.2354 22.4271 26.2354 18.862 26.2354H16.8327L18.2563 17.2233C18.3409 16.6785 18.8128 16.2774 19.3634 16.2774H20.2935C22.722 16.2774 25.013 16.2774 26.1967 17.6616C26.9027 18.4876 27.119 19.7146 26.8496 21.4098Z" clip-rule="evenodd"/><path fill="#283B82" fill-rule="evenodd" d="M65.4974 21.2546H59.0576C58.509 21.2546 58.0352 21.6557 57.9502 22.2005L57.6655 24.0017L57.215 23.3488C55.8209 21.3253 52.7118 20.649 49.6088 20.649C42.4924 20.649 36.4142 26.0389 35.2304 33.5997C34.615 37.3713 35.4901 40.9778 37.6295 43.4927C39.5919 45.8051 42.3999 46.7687 45.7411 46.7687C51.4752 46.7687 54.6548 43.0819 54.6548 43.0819L54.3677 44.8713C54.2593 45.5556 54.7866 46.1691 55.473 46.1691H61.2735C62.1958 46.1691 62.9745 45.5005 63.1202 44.5902L66.6006 22.5484C66.711 21.87 66.1858 21.2546 65.4974 21.2546ZM56.5208 33.7886C55.8996 37.4676 52.9793 39.9377 49.2551 39.9377C47.3851 39.9377 45.8904 39.3377 44.9307 38.2011C43.979 37.0724 43.6172 35.4659 43.9201 33.6763C44.5001 30.0287 47.4696 27.4784 51.1367 27.4784C52.9657 27.4784 54.4522 28.0859 55.4315 29.2322C56.4129 30.3904 56.8019 32.0069 56.5208 33.7886Z" clip-rule="evenodd"/><path fill="#283B82" d="M93.3243 21.2546H99.7957C100.702 21.2546 101.231 22.2712 100.716 23.0147L79.1918 54.0841C78.8438 54.5875 78.2694 54.8865 77.6561 54.8865H71.1925C70.2817 54.8865 69.7508 53.8616 70.278 53.1165L76.9795 43.656L69.8513 22.7372C69.6055 22.0096 70.1422 21.2546 70.9152 21.2546H77.2745C78.1004 21.2546 78.8299 21.7973 79.0679 22.5879L82.8511 35.2221L91.7768 22.0747C92.1267 21.5614 92.7069 21.2546 93.3243 21.2546Z"/></g><g id="Union_2"><path fill="#469BDB" d="M163.492 44.8776L169.012 9.76123C169.096 9.21678 169.568 8.81512 170.117 8.81348H176.331C177.017 8.81348 177.544 9.4289 177.436 10.1096L171.993 44.5925C171.851 45.503 171.069 46.1714 170.146 46.1714H164.597C163.911 46.1714 163.384 45.5578 163.492 44.8776Z"/><path fill="#469BDB" fill-rule="evenodd" d="M121.222 8.81511H107.772C106.853 8.81511 106.071 9.48388 105.927 10.3927L100.488 44.8776C100.38 45.5578 100.907 46.1714 101.593 46.1714H108.495C109.136 46.1714 109.685 45.7036 109.785 45.0664L111.329 35.2915C111.47 34.3808 112.255 33.7122 113.173 33.7122H117.429C126.289 33.7122 131.4 29.4254 132.737 20.9304C133.341 17.2139 132.761 14.2938 131.021 12.2488C129.111 10.0029 125.723 8.81511 121.222 8.81511ZM122.774 21.4103C122.04 26.2359 118.353 26.2359 114.786 26.2359H112.759L114.184 17.2238C114.269 16.6791 114.737 16.2779 115.289 16.2779H116.219C118.646 16.2779 120.939 16.2779 122.122 17.6621C122.829 18.4882 123.043 19.7152 122.774 21.4103Z" clip-rule="evenodd"/><path fill="#469BDB" fill-rule="evenodd" d="M161.42 21.2551H154.984C154.431 21.2551 153.961 21.6563 153.878 22.201L153.593 24.0022L153.141 23.3493C151.747 21.3258 148.64 20.6495 145.537 20.6495C138.42 20.6495 132.344 26.0394 131.16 33.6003C130.547 37.3718 131.418 40.9783 133.557 43.4932C135.524 45.8057 138.328 46.7692 141.669 46.7692C147.403 46.7692 150.582 43.0824 150.582 43.0824L150.295 44.8718C150.187 45.5561 150.714 46.1696 151.405 46.1696H157.204C158.122 46.1696 158.905 45.501 159.048 44.5907L162.531 22.549C162.637 21.8705 162.11 21.2551 161.42 21.2551ZM152.443 33.7891C151.825 37.4681 148.901 39.9382 145.177 39.9382C143.311 39.9382 141.812 39.3383 140.853 38.2017C139.901 37.073 139.543 35.4664 139.842 33.6769C140.426 30.0292 143.391 27.4789 147.059 27.4789C148.888 27.4789 150.374 28.0865 151.353 29.2327C152.338 30.3909 152.728 32.0074 152.443 33.7891Z" clip-rule="evenodd"/></g></g></g></svg>

<svg xmlns="http://www.w3.org/2000/svg" fill="none" aria-hidden="true" viewBox="0 0 182 64"><path fill="#283B82" fill-rule="evenodd" d="M25.298 8.815H11.85a1.87 1.87 0 0 0-1.847 1.577L4.564 44.877a1.12 1.12 0 0 0 1.11 1.294h6.42c.92 0 1.703-.669 1.846-1.579l1.467-9.301c.142-.91.926-1.58 1.845-1.58h4.257c8.858 0 13.971-4.286 15.306-12.781.602-3.717.026-6.637-1.714-8.682-1.912-2.246-5.302-3.433-9.803-3.433ZM26.85 21.41c-.736 4.825-4.423 4.825-7.988 4.825h-2.03l1.424-9.012a1.12 1.12 0 0 1 1.107-.946h.93c2.429 0 4.72 0 5.904 1.385.706.826.922 2.053.653 3.748Zm38.647-.155h-6.44c-.548 0-1.022.4-1.107.946l-.284 1.8-.45-.652c-1.395-2.024-4.504-2.7-7.607-2.7-7.117 0-13.195 5.39-14.379 12.95-.615 3.772.26 7.379 2.4 9.894 1.962 2.312 4.77 3.276 8.111 3.276 5.734 0 8.914-3.687 8.914-3.687l-.287 1.79a1.12 1.12 0 0 0 1.105 1.297h5.8c.923 0 1.702-.668 1.847-1.579l3.48-22.042a1.116 1.116 0 0 0-1.103-1.293Zm-8.976 12.534c-.621 3.679-3.542 6.149-7.266 6.149-1.87 0-3.364-.6-4.324-1.737-.952-1.129-1.314-2.735-1.01-4.525.58-3.647 3.549-6.198 7.216-6.198 1.829 0 3.315.608 4.295 1.754.981 1.158 1.37 2.775 1.089 4.557Z" clip-rule="evenodd"/><path fill="#283B82" d="M93.324 21.255h6.472a1.12 1.12 0 0 1 .92 1.76l-21.524 31.07a1.865 1.865 0 0 1-1.536.801h-6.463a1.12 1.12 0 0 1-.915-1.77l6.702-9.46-7.129-20.919a1.121 1.121 0 0 1 1.064-1.482h6.36c.825 0 1.555.542 1.793 1.333l3.783 12.634 8.926-13.147c.35-.514.93-.82 1.547-.82Z"/><path fill="#469BDB" d="m163.492 44.878 5.52-35.117a1.123 1.123 0 0 1 1.105-.948h6.214a1.12 1.12 0 0 1 1.105 1.297l-5.443 34.483a1.865 1.865 0 0 1-1.847 1.578h-5.549a1.119 1.119 0 0 1-1.105-1.293Z"/><path fill="#469BDB" fill-rule="evenodd" d="M121.222 8.815h-13.45c-.919 0-1.701.669-1.845 1.578l-5.439 34.485a1.119 1.119 0 0 0 1.105 1.293h6.902c.641 0 1.19-.467 1.29-1.105l1.544-9.775a1.866 1.866 0 0 1 1.844-1.579h4.256c8.86 0 13.971-4.287 15.308-12.782.604-3.716.024-6.636-1.716-8.681-1.91-2.246-5.298-3.434-9.799-3.434Zm1.552 12.595c-.734 4.826-4.421 4.826-7.988 4.826h-2.027l1.425-9.012a1.117 1.117 0 0 1 1.105-.946h.93c2.427 0 4.72 0 5.904 1.384.706.826.92 2.053.651 3.748Zm38.646-.155h-6.436c-.553 0-1.023.401-1.106.946l-.285 1.801-.452-.653c-1.394-2.023-4.501-2.7-7.604-2.7-7.117 0-13.193 5.39-14.377 12.951-.613 3.772.258 7.378 2.397 9.893 1.967 2.313 4.771 3.276 8.112 3.276 5.734 0 8.914-3.687 8.914-3.687l-.288 1.79a1.121 1.121 0 0 0 1.11 1.298h5.799c.918 0 1.701-.669 1.844-1.58l3.483-22.041a1.123 1.123 0 0 0-1.111-1.294Zm-8.977 12.534c-.618 3.68-3.542 6.15-7.266 6.15-1.866 0-3.365-.6-4.324-1.737-.952-1.129-1.31-2.736-1.011-4.525.584-3.648 3.55-6.198 7.217-6.198 1.829 0 3.315.608 4.294 1.754.986 1.158 1.375 2.774 1.09 4.556Z" clip-rule="evenodd"/></svg>
